X: 1134
T: The New Custom House
M: 4/4
L: 1/8
R: reel
K: E Mixolydian
|: e/d/c |
BEGE GABc | d2 AF DFAd | BE E/E/E GABc | d/e/d fd efdc |
BE G/F/E G2 A/B/c | d2 AF DFAd | BE E/E/E G2 A/B/c | dBAF E2 :|
|: GA |
BeGe Bege | f2 dB fgaf | Be e/e/e Begb | ag f/e/d geGA |
Be e/e/e BeGe | fd d/d/d fg a/g/f | b2 a/g/f ebbe | fbba f2 :|
